!!!COM: Henri Duparc
!!!CNT: Francais
!!!TXO: Francais
!!!OTL: Se/re/nade Florentine
!!!LYR: Jean Lahor
!!!ENC: Jacob Pegg
!!!YOR: Henri Duparc: Complete Songs for Voice and Piano
!!!YOR: New York: Dover publications, inc., 1995 
!!!YOR: ISBN 0-486-28466-2
!!!ODT: 1881/
!!NB: Vocal melody and text only encoded.
!!NB: First instance of melodic material only encoded.
**kern	**silbe
*clef G2	*
*k[b-]	*
*M9/8	*
*MM[lento]	*
!! created: 6/25/03 14:44
!! last edited: 7/21/03 23:02
=1	=1
1r	.
8r	.
=2	=2
4r	.
8r	.
4r	.
8r	.
4r	.
{8cc	{E-
=3	=3
4dd	-toi-
8dd	-le
4ee	dont
8ee	la
4ff	beau-
8dd	-te/
=4	=4
[4.cc	luit
8cc]}	|}
8r	.
{8g	{Com-
8a	-me un
8b-	di-
8cc	-a-
=5	=5
4.cc	-mant
4dd	dans
8dd	la
[4.ee	nuit,
=6	=6
2.ee_	|
8ee]}	|}
8r	.
{8ee	{Re-
=7	=7
4ggn	-gar-
8ff#	-de
4ee	vers
8dd	ma
4cc	bien~
8dd	~a-
=8	=8
4.ee	-me/-
4.ee}	-e}
8r	.
8r	.
{8cc	{Dont
=9	=9
4ee	la
8dd	pau-
4cc	-pie\-
8bn	-re
4a	s'est
8bn	fer-
=10	=10
4.cc	-me/-
4.cc}	-e}
4r	.
8r	.
=11	=11
4r	.
8r	.
4r	.
8r	.
{4.cc	{Et
=12	=12
4dd	fais
8dd	des-
4a	-cen-
8a	-dre
4cc	sur
8cc	ces
=13	=13
2.ff}	yeux}
{8ee	{La
8dd	be/-
8ee	-ne/-
=14	=14
8.cc	-dic-
8.b-	-ti-
4.a	-on
4.g	des
=15	=15
2.f}	cieux.}
4r	.
8r	.
=16	=16
4r	.
8r	.
4r	.
8r	.
{8cc	{El-
8cc	-le
8dd	s'en-
=17	=17
[2.ee	-dort...
4.ee_	|
=18	=18
4.ee]}	|}
4r	.
8r	.
{8cc	{Par
8dd	la
8ee	fe-
=19	=19
8dd	-ne^-
8cc	-tre En
8b-	sa
4cc	cham-
8dd	-bre heu-
8cc	-reu-
8b-	-se
8a	pe/-
=20	=20
4.cc	-ne\-
4cc}	-tre:}
8r	.
8r	.
8r	.
{[8cc	{Sur
=21	=21
8cc]	|
8b-	sa
8a-	blan-
[4.cc	-cheur,
4cc]	|
8a-	comme
=22	=22
4g	un
8b-	bai-
[4.g	-ser,
8g]}	|}
8r	.
{[8cc	{Viens
=23	=23
8cc]	|
8b-	jus-
8an	-qu'a
[4.cc	l'au-
4cc]	|
8an	-be
=24	=24
4g	te
8b-	po-
[4.g	-ser.
8g]}	|}
8r	.
8r	.
=25	=25
4r	.
8r	.
4r	.
8r	.
8r	.
8r	.
{8f#	{Et
=26	=26
8g	que
8g	sa
8a	pen-
4bn	-se/e,
8bn	a-
4.dd	-lors,
=27	=27
2.ff	re^-
8ee}	-ve}
8r	.
{8ee	{D'un
=28	=28
8ee	as-
8dd	-tre
8ee	d'a-
4.cc	-mour
4a	qui
8g	se
=29	=29
(4.a	le\-
2.g)	|
=30	=30
4f}	-ve!}
8r	.
4r	.
8r	.
4r	.
8r	.
*-	*-
